X: 14085
T: Frenzy
R: polka
M: 2/4
K: Aminor
|:A>B|ce dc|cB AG|ce dc|B2 BA/B/|
ce dc|cB AG|{B}AG E/^F/G|A2:|
a>b|c'b ag|ag eg|c'b ag|a2 ab|
c'b ag|ag ed|ec AG|A2 a>b|
c'b ag|ag eg|e'd' c'd'|e'2 e'f'|
e'c' d'b|c'b ag|ec AG|A2||

